public/assets/checkbox.svg

<svg width="20" height="20" viewBox="0 0 20 20" fill="none" xmlns="http://www.w3.org/2000/svg">
<path d="M16.5622 0.292969H3.43781C1.7009 0.292969 0.292969 1.7009 0.292969 3.43781V16.5622C0.292969 18.299 1.7009 19.707 3.43781 19.707H16.5622C18.2991 19.707 19.707 18.2991 19.707 16.5622V3.43781C19.707 1.7009 18.2991 0.292969 16.5622 0.292969Z" fill="#F87E0F"/>
<path d="M11.1568 0.292969H3.43781C1.70105 0.292969 0.292969 1.7009 0.292969 3.43781V16.5622C0.292969 18.299 1.70105 19.707 3.43781 19.707H7.48734C4.29993 15.8847 5.50003 8.82111 7.90741 6.06552C10.2321 3.40485 10.9418 1.27487 11.1568 0.292969Z" fill="#9AD880"/>
<path d="M9.14581 14.7881C8.7471 14.7881 8.36243 14.6356 8.07174 14.3604L3.9804 10.4874C3.35373 9.8941 3.32672 8.90518 3.91998 8.2785C4.51324 7.65198 5.50201 7.62466 6.12884 8.21793L9.05578 10.9888L13.7834 5.72983C14.3604 5.08804 15.3482 5.03555 15.99 5.61233C16.6318 6.18927 16.6843 7.17712 16.1073 7.81891L10.3079 14.2702C10.0261 14.5836 9.62982 14.7699 9.20868 14.7868C9.18777 14.7877 9.16672 14.7881 9.14581 14.7881Z" fill="white"/>
<path d="M6.12885 8.21808C5.50201 7.62466 4.51309 7.65198 3.91983 8.2785C3.32657 8.90534 3.35373 9.89411 3.98041 10.4875L5.63934 12.0578C5.77469 10.8086 6.0701 9.60358 6.4798 8.55042L6.12885 8.21808Z" fill="#CCF8FF"/>
<path d="M19.707 14.805C19.8689 14.805 20 14.6739 20 14.512V3.43781C20 1.54221 18.4578 0 16.5622 0H3.43781C1.54221 0 0 1.54221 0 3.43781V16.5622C0 18.4578 1.54221 20 3.43781 20H16.5622C18.4578 20 20 18.4578 20 16.5622V15.761C20 15.5991 19.8689 15.468 19.707 15.468C19.5451 15.468 19.4141 15.5991 19.4141 15.761V16.5622C19.4141 18.1348 18.1348 19.4141 16.5622 19.4141H3.43781C1.86523 19.4141 0.585938 18.1348 0.585938 16.5622V3.43781C0.585938 1.86523 1.86523 0.585938 3.43781 0.585938H16.5622C18.1348 0.585938 19.4141 1.86523 19.4141 3.43781V14.512C19.4141 14.6739 19.5451 14.805 19.707 14.805Z" fill="black"/>
<path d="M5.92743 8.43078L6.75141 9.21081C6.8689 9.3222 7.05444 9.31702 7.16568 9.19952C7.27692 9.08203 7.27173 8.89664 7.15424 8.7854L6.33026 8.00522C5.58716 7.30194 4.41055 7.33429 3.70712 8.07724C3.00385 8.82019 3.03604 9.99695 3.77899 10.7002L7.87033 14.5731C8.2164 14.9007 8.65921 15.0796 9.22058 15.0796C9.71787 15.0796 10.1932 14.836 10.5257 14.4661L16.3252 8.01483C17.0093 7.25387 16.9467 6.07849 16.1859 5.39444C15.425 4.71054 14.2494 4.7731 13.5655 5.5339L9.03885 10.5693L8.07648 9.65835C7.95883 9.54697 7.77344 9.55215 7.6622 9.66965C7.55097 9.78714 7.55615 9.97253 7.67365 10.0838L8.85437 11.2015C8.96652 11.3008 9.14154 11.3217 9.27353 11.1845L14.0012 5.9256C14.4692 5.40512 15.2734 5.36224 15.7941 5.83023C16.3147 6.29822 16.3574 7.10251 15.8894 7.62314L10.09 14.0744C9.86252 14.3274 9.53705 14.4804 9.19708 14.4942C8.8533 14.5079 8.52234 14.3835 8.27317 14.1476L4.18198 10.2747C3.67355 9.79339 3.65158 8.98834 4.13269 8.47992C4.61395 7.97165 5.41901 7.94952 5.92743 8.43078Z" fill="black"/>
</svg>

<svg width="20" height="20" fill="none" xmlns="http://www.w3.org/2000/svg"><path d="M16.562.293H3.438A3.145 3.145 0 00.293 3.438v13.124a3.145 3.145 0 003.145 3.145h13.124a3.145 3.145 0 003.145-3.145V3.438A3.145 3.145 0 0016.562.293z" fill="#F87E0F"/><path d="M11.157.293h-7.72A3.145 3.145 0 00.294 3.438v13.124a3.145 3.145 0 003.145 3.145h4.05C4.3 15.885 5.5 8.821 7.907 6.066c2.324-2.661 3.034-4.791 3.249-5.773z" fill="#9AD880"/><path d="M9.146 14.788c-.399 0-.784-.152-1.074-.428L3.98 10.487a1.563 1.563 0 012.149-2.27l2.927 2.772 4.727-5.26a1.563 1.563 0 012.324 2.09l-5.8 6.451a1.562 1.562 0 01-1.161.518z" fill="#fff"/><path d="M6.129 8.218a1.563 1.563 0 00-2.149 2.27l1.66 1.57c.135-1.25.43-2.454.84-3.508l-.351-.332z" fill="#CCF8FF"/><path d="M19.707 14.805a.293.293 0 00.293-.293V3.438A3.442 3.442 0 0016.562 0H3.438A3.442 3.442 0 000 3.438v13.124A3.442 3.442 0 003.438 20h13.124A3.442 3.442 0 0020 16.562v-.801a.293.293 0 10-.586 0v.801a2.855 2.855 0 01-2.852 2.852H3.438a2.855 2.855 0 01-2.852-2.852V3.438A2.855 2.855 0 013.438.586h13.124a2.855 2.855 0 012.852 2.852v11.074c0 .162.131.293.293.293z" fill="#000"/><path d="M5.927 8.43l.824.78a.293.293 0 10.403-.425l-.824-.78a1.858 1.858 0 00-2.623.072A1.858 1.858 0 003.78 10.7l4.091 3.873c.346.328.79.507 1.35.507.498 0 .973-.244 1.306-.614l5.8-6.451a1.858 1.858 0 00-.14-2.62 1.858 1.858 0 00-2.62.139l-4.527 5.035-.963-.91a.293.293 0 10-.402.425l1.18 1.117c.113.1.288.12.42-.017L14 5.926a1.271 1.271 0 011.793-.096c.52.468.563 1.273.095 1.793l-5.799 6.451a1.266 1.266 0 01-1.817.073l-4.091-3.872a1.271 1.271 0 01-.05-1.795 1.271 1.271 0 011.795-.05z" fill="#000"/></svg>
